packages/components/pie-thumbnail/src/default-placeholder.svg

<svg width="32" height="32" viewBox="0 0 32 32" fill="none" xmlns="http://www.w3.org/2000/svg">
<path d="M31.8994 15.4934C31.7973 15.2388 30.4041 12.7403 27.8189 9.60579C27.7536 9.52974 27.7123 9.43702 27.6999 9.33873C27.5442 7.51411 27.2845 5.69928 26.9218 3.90261C26.8804 3.7221 26.7818 3.55869 26.64 3.43527C26.4982 3.31184 26.3202 3.23459 26.1309 3.21432L23.4522 2.89083C23.4286 2.88942 23.4049 2.88942 23.3813 2.89083C23.231 2.89083 23.0868 2.94884 22.9805 3.0521C22.8742 3.15537 22.8144 3.29542 22.8144 3.44146V4.34725C22.8141 4.35614 22.8102 4.36454 22.8036 4.3707C22.797 4.37686 22.7881 4.38029 22.779 4.38029C22.775 4.38042 22.7711 4.37976 22.7675 4.37833C22.7638 4.37691 22.7605 4.37476 22.7577 4.37203C21.0744 2.8914 19.2577 1.56042 17.3294 0.395086C16.9347 0.136482 16.4691 -0.00114301 15.9929 7.15061e-06C15.5196 8.5992e-05 15.0571 0.137676 14.6649 0.395086C5.38719 5.95647 0.282042 15.0047 0.0850363 15.4934C0.0284133 15.6122 -0.000615157 15.7416 9.88343e-06 15.8724C0.000634924 16.0033 0.0308974 16.1324 0.0886523 16.2507C0.146407 16.3689 0.23024 16.4733 0.334203 16.5566C0.438166 16.6398 0.559713 16.6998 0.690226 16.7323L3.36185 17.232C3.53865 17.2788 3.69688 17.3761 3.81594 17.5114C3.935 17.6467 4.00938 17.8136 4.02941 17.9905C4.05208 18.4476 4.55665 28.6811 5.1916 31.3351C5.24328 31.5257 5.3585 31.6944 5.51927 31.8146C5.68004 31.9349 5.87731 32.0001 6.08025 32H6.1001C7.65914 31.9615 9.08636 31.9367 10.6284 31.916H10.7574C10.8366 31.9153 10.9123 31.8842 10.968 31.8296C11.0237 31.7749 11.055 31.7011 11.055 31.6242C10.9926 30.7308 10.858 28.6879 10.7489 26.5308C10.7489 26.4772 10.7418 26.4097 10.7389 26.3546C10.7341 26.265 10.7068 26.1779 10.6593 26.1009C10.6119 26.0239 10.5458 25.9593 10.4668 25.9128C10.0601 25.6767 9.71943 25.347 9.47496 24.9528C9.23049 24.5586 9.08973 24.112 9.0651 23.6524C8.92337 20.0637 8.85393 15.9174 9.0566 12.6714C9.05961 12.5331 9.11909 12.4015 9.22195 12.3057C9.32482 12.21 9.46264 12.1578 9.6051 12.1607C9.74756 12.1636 9.883 12.2214 9.98161 12.3213C10.0802 12.4212 10.1339 12.5551 10.1309 12.6935C10.1309 12.7072 10.1309 12.721 10.1309 12.7348C9.99911 14.8974 9.98919 17.455 10.036 19.9783C10.039 20.1426 10.1091 20.299 10.2308 20.4131C10.3525 20.5272 10.5159 20.5897 10.6851 20.5868C10.8542 20.5838 11.0153 20.5158 11.1328 20.3975C11.2502 20.2793 11.3145 20.1206 11.3115 19.9563C11.2634 17.4165 11.2761 14.8423 11.4108 12.6714C11.4138 12.5331 11.4732 12.4015 11.5761 12.3057C11.679 12.21 11.8168 12.1578 11.9593 12.1607C12.1017 12.1636 12.2371 12.2214 12.3358 12.3213C12.4344 12.4212 12.4881 12.5551 12.4851 12.6935V12.7348C12.3533 14.8864 12.3433 17.4289 12.3887 19.9384C12.3913 20.1027 12.461 20.2592 12.5825 20.3736C12.704 20.488 12.8673 20.5508 13.0364 20.5482C13.2056 20.5457 13.3667 20.478 13.4845 20.36C13.6022 20.242 13.6669 20.0834 13.6643 19.9191C13.6175 17.3903 13.6303 14.8258 13.7649 12.6701C13.7679 12.5317 13.8274 12.4001 13.9302 12.3044C14.0331 12.2086 14.1709 12.1564 14.3134 12.1593C14.4559 12.1623 14.5913 12.22 14.6899 12.3199C14.7885 12.4198 14.8422 12.5537 14.8392 12.6921V12.7334C14.6465 15.8871 14.7088 19.8806 14.8392 23.384C14.8399 23.395 14.8399 23.406 14.8392 23.417C14.8392 23.4349 14.8392 23.4528 14.8392 23.4693V23.5037C14.8396 23.9582 14.726 24.4059 14.5082 24.8082C14.2904 25.2104 13.9749 25.5551 13.5892 25.8123C13.5206 25.8582 13.4637 25.9185 13.4227 25.9889C13.3817 26.0592 13.3577 26.1377 13.3525 26.2184C13.3525 26.2184 13.2859 26.7566 13.531 29.3625C13.6444 30.5009 13.7323 31.2897 13.772 31.6462C13.781 31.7129 13.8148 31.774 13.867 31.8181C13.9192 31.8623 13.9862 31.8863 14.0555 31.8857H14.3049C14.8194 31.8857 15.3495 31.8857 15.9022 31.8857H16.1077C16.805 31.8857 17.4697 31.8857 18.109 31.8857L19.6255 31.8981C19.6951 31.8986 19.7625 31.8742 19.8148 31.8295C19.8671 31.7848 19.9006 31.723 19.9089 31.6559C20.259 28.5324 20.3426 26.7773 20.3426 26.7773C20.3404 26.7025 20.3105 26.631 20.2585 26.5759C20.2064 26.5208 20.1357 26.4857 20.0592 26.4772L18.2167 26.2308C18.0942 26.216 17.979 26.1664 17.8855 26.0883C17.7919 26.0102 17.7242 25.907 17.6908 25.7916C17.6675 25.7017 17.6594 25.6087 17.6668 25.5163C18.4137 15.1052 21.9484 11.5963 21.9484 11.5963C22.0001 11.5423 22.0576 11.4938 22.1199 11.4518C22.19 11.4028 22.2707 11.3699 22.3558 11.3558C22.4409 11.3417 22.5282 11.3466 22.6111 11.3702C22.694 11.3939 22.7702 11.4356 22.8339 11.4922C22.8976 11.5488 22.9472 11.6188 22.9788 11.6968C23.0049 11.7781 23.0202 11.8623 23.0242 11.9473C23.3303 15.2195 23.1815 20.7891 22.9916 25.1336C22.8314 28.8215 22.6387 31.7164 22.6387 31.7164C22.6387 31.7734 22.662 31.828 22.7034 31.8683C22.7449 31.9085 22.8011 31.9312 22.8598 31.9312C23.8618 31.9477 24.844 31.967 25.8971 31.9931H25.9183C26.1212 31.993 26.3184 31.9277 26.4791 31.8075C26.6398 31.6872 26.7551 31.5187 26.807 31.3282C27.4419 28.6742 27.9408 18.4407 27.9678 17.9837C27.9883 17.8069 28.0629 17.6403 28.1819 17.5051C28.3009 17.3699 28.4588 17.2724 28.6353 17.2252L31.3069 16.7255C31.505 16.6768 31.6807 16.5653 31.8062 16.4087C31.9318 16.2522 31.9999 16.0594 32 15.861C31.9937 15.7329 31.9594 15.6076 31.8994 15.4934Z" fill="#EFEDEA"/>
</svg>

<svg fill="none" xmlns="http://www.w3.org/2000/svg" viewBox="0 0 32 32"><path d="M31.9 15.493c-.103-.254-1.496-2.753-4.081-5.887a.507.507 0 0 1-.12-.267 48.166 48.166 0 0 0-.777-5.436.881.881 0 0 0-.282-.468.925.925 0 0 0-.51-.22l-2.678-.324a.595.595 0 0 0-.07 0 .575.575 0 0 0-.402.161.543.543 0 0 0-.166.39v.905a.034.034 0 0 1-.01.024.036.036 0 0 1-.037.007A2.43 2.43 0 0 0 15.992 0c-.472 0-.935.138-1.327.395C5.387 5.956.282 15.005.085 15.493a.87.87 0 0 0 .25 1.064.929.929 0 0 0 .355.175l2.672.5a.917.917 0 0 1 .454.28c.119.135.193.302.213.479.023.457.528 10.69 1.163 13.344a.89.89 0 0 0 .327.48c.161.12.358.185.561.185h.02c1.56-.038 2.986-.063 4.528-.084h.13c.079 0 .154-.032.21-.086a.288.288 0 0 0 .087-.206c-.062-.893-.197-2.936-.306-5.093 0-.054-.007-.121-.01-.176a.558.558 0 0 0-.272-.442 2.847 2.847 0 0 1-.992-.96 2.745 2.745 0 0 1-.41-1.3c-.142-3.59-.211-7.736-.008-10.982a.515.515 0 0 1 .165-.365.547.547 0 0 1 .76.015c.098.1.152.234.149.373v.04c-.132 2.163-.142 4.721-.095 7.244.003.165.073.321.195.435a.648.648 0 0 0 .902-.015.61.61 0 0 0 .179-.442c-.049-2.54-.036-5.114.099-7.285a.515.515 0 0 1 .165-.365.547.547 0 0 1 .76.015c.098.1.152.234.15.373v.04c-.133 2.152-.143 4.695-.097 7.204.002.165.072.321.194.436a.648.648 0 0 0 .902-.014.61.61 0 0 0 .18-.44c-.047-2.53-.035-5.094.1-7.25a.515.515 0 0 1 .165-.366.546.546 0 0 1 .76.016c.099.1.152.234.15.372v.041c-.194 3.154-.131 7.148 0 10.651a.26.26 0 0 1 0 .033v.087c0 .454-.114.902-.332 1.304a2.827 2.827 0 0 1-.919 1.004.54.54 0 0 0-.237.406s-.066.539.179 3.145c.113 1.138.201 1.927.241 2.283a.273.273 0 0 0 .095.172c.052.044.12.068.188.068h4.054l1.516.012c.07 0 .137-.024.19-.069a.273.273 0 0 0 .094-.173c.35-3.124.434-4.879.434-4.879a.307.307 0 0 0-.084-.201.323.323 0 0 0-.2-.099l-1.842-.246a.636.636 0 0 1-.331-.143.606.606 0 0 1-.195-.296.832.832 0 0 1-.024-.276c.747-10.41 4.281-13.92 4.281-13.92a1.05 1.05 0 0 1 .172-.144.576.576 0 0 1 .859.245.968.968 0 0 1 .045.25c.306 3.273.157 8.842-.032 13.187-.16 3.688-.353 6.582-.353 6.582 0 .057.023.112.064.152.042.04.098.063.157.063 1.002.017 1.984.036 3.037.062h.021c.203 0 .4-.065.561-.185a.893.893 0 0 0 .328-.48c.635-2.654 1.134-12.887 1.16-13.344a.877.877 0 0 1 .215-.479.92.92 0 0 1 .453-.28l2.672-.5a.92.92 0 0 0 .5-.316.875.875 0 0 0 .193-.548.883.883 0 0 0-.1-.368Z" fill="#EFEDEA"/></svg>
